X:138
T:Atalantic. THO5.138, The
T:Atlantic. THO5.138, The
M:6/8
L:1/8
B:Thompson's Complete Collection of 200 Favourite Dances Vol.5
F:https://www.libraryofdance.org/manuals/1780c-Thompson-Compleat-5.pdf
Z:vmp. Peter Dunk 2024
Q:3/8=100
K:A
!p!A,2A A,2A|[E2A,2]c [E2A,2]c|!f!edc Bcd|cBA GAB|
!p!A,2A A,2A|[E2A,2]c [E2A,2]c|!f!edc BAG|A2A A3:|
|:!p!Ace Ace|Bde Bde|!f!Ace Ace|GBe GBe|
!p!Ace Ace|Bde Bde|!f!fdc BAG|AEC A,3:|
W:
W:Turn Right hands round, Left hands back again ./.
W:lead down 2 Couples ./:
W:set 3 & 3 top and bottom, then sideways :/.
W:Hands 6 quite round :/:

